X:1
T:Rosa de Maggio
T:Rosa de Maggio
T:Melodia Napoletana del 1870
T:Cesare Rossi
T:Enrico Golisciani
T:IMSLP Public Domain
T:IMSLP Public Domain
T:IMSLP Public Domain
C:Cesrae Rossi
Z:Enrico Golisciani
Z:IMSLP Public Domain
%%score 1 { ( 2 4 ) | ( 3 5 ) }
L:1/8
Q:1/4=112
M:3/4
K:D
V:1 treble nm="Voice"
V:2 treble nm="Piano"
V:4 treble 
V:3 bass 
V:5 bass 
V:1
"^Allegro Moderato" z6 | z6 | z6 | z6 | z6 | z6 | z6 | z6 |"^espressivo"!<(! A2 B2 d2!<)! | %9
w: ||||||||Ro\- sa de|
 !>!c4 G2 |!<(! G2 A2 c2!<)! | !>!B4 F2 | F2 !>!G3 ^D | !>!F4 E2 | B2 !>!c3 G | !>!B4 A2 | %16
w: Mag\- gio,|po\- ve\- ro|scio\- re|Ncop\- paa la|te\- sta|te si ngial\-|lu\- to!|
!<(! A2 B2 d2!<)! | !>!c4 G2 |!<(! G2 A2 c2!<)! | !>!B4 F z | F2 G3 ^D | F2!<(! c2 B2!<)! | %22
w: Te si ngial\-|lu\- to|com\- me l'am\-|mo\- re|C'a po\- coa|po- * co|
!>(! _B2 !>!A3 C!>)! | !>!E4 D z |"^con anima"!<(! A2 G2 A2 | c2 ^G2 A2!<)! |!>(! B2 A3 E!>)! | %27
w: da meè fu\-|ju\- to|Quan\- no me|stru- * jo|ma che ne|
 !>!A4 ^G2 | (D2 C2 D2) | !>!A4 ^G2 | (D2 C2 D2) | !>!F4 E2 | A2 ^G2 A2 | c2 ^B2 c2 | %34
w: cac\- cio?|Muor\- toè lu|scio\- re|quan\- noè sfrun\-|na\- to|Quan\- ne s'è|per- * zo|
 !>!e2 !>!e2 !>!e2 | !>!e4 d z | =F2 c3 B | E2 !>!B3 A | B,2 !>!=F3 E | A2 !>!A4 |!<(! A6!<)! | %41
w: lu nam\- mu\-|ra\- to\-|Chi te lo|tor- * na|chi te lo|da Ah!|_|
O!>(! G2 G2 G2!>)! |!<(! G6!<)! |!>(! F6!>)! | F2 !>!G3 ^D | !>!F4 E2 | B2 !>!c3 G | !>!B4 A2 | %48
w: Ro\- sa de|Mag\-|gio|Muor\- to è lu|scio\- re|quan\- no è sfrun\-|na\- *|
 A2 B2 d2 | !>!d4 F2 | F2!<(! ^A2 c2!<)! | !>!e4 d z |{/e} (d2 c2 d2 | %53
w: Quan\- ne s'è|per- zo|lu nam\- mu\-|ra\- to\-|Chi te lo|
"^rall. con anima"[Q:1/4=95] f2 B2 A2 | G2 !>!F3 E | D2) z2 z2!D.C.! |] %56
w: tor- * na|chi te lo|da?|
V:2
!ppp! [FA]2!<(! [GB]2 [Bd]2!<)! |!>(! c2 [cf]2 e2!>)! |!pp! [EG]2!<(! [Ac]2 [GB]2!<)! | %3
w: |||
!>(! A2 [Ae]2 [Ad]2!>)! | d2!<(!{ed} c2!f! d2!<)! |!>(! f2 d2 F2!>)! |!pp! (G2{AG} F3 E | %7
w: |||* rall. *|
[I:staff +1] [F,A,D]2[I:staff -1] [DF]2 [DF]2) |!pp!!<(! [FA]2 [GB]2 [Bd]2!<)! | !>![Ac]4 [EG]2 | %10
w: |||
!<(! [EG]2 [FA]2 [Ac]2!<)! | !>![GB]4 [DF]2 | z6 | z6 | [GB]2 !>![Ac]3 [EG] | !>![GB]4 [FA]2 | %16
w: ||||||
!pp!!<(! [FA]2 [GB]2 [Bd]2!<)! | !>![Ac]4 [EG]2 |!<(! [EG]2 [FA]2 [Ac]2!<)! | !>![GB]4 [DF] z | %20
w: ||||
 z6 | z6 | z6 | z6 |!<(! [Ac']2 [^G^g]2 [Aa]2 | [Ac']2 [^G^g]2 [Aa]2!<)! | %26
w: ||||||
!>(! [Bb]2 [Aa]2 [Cc]2!>)! | !>![DBd]4 [D^Gd]2 | z6 | !>![DBd]4 [D^Gd]2 | z6 | !>![DFd]4 [CEc]2 | %32
w: ||||||
!<(! [Aa]2 [^G^g]2 [Aa]2 | [cc']2 [^B^b]2 [cc']2!<)! | !>![Ge]2 !>![Fe]2 !>![^Ae]2 | %35
w: |||
 !>![Gce]4 [FBd] z | !>!=F6 | !>!F6 | !>!D6 | C2 [CEA]2 z2 |!pp! [Aa]2!<(! [Bb]2 [dd']2!<)! | %41
w: ||||||
!pp! [cc']4!>(! [Gg] z!>)! |!pp! [Gg]2!<(! [Aa]2 [cc']2!<)! |!>(! [Bb]4 [Ff]2!>)! | z6 | z6 | %46
w: |||||
 [GB]2 !>![Ac]3 [EG] | !>![GB]4 [FA]2 |!<(! [Aa]2 [Bb]2 [dd']2!<)! |!>(! !>![cc']4 [Ff]2!>)! | %50
w: ||||
 [Ff]2 [^A^a]2 [cc']2 |!ff! !>![ee']4 [dd'] z |{/e} (d2 c2 d2 | f2 !>![FAd]2 [DF]2 | %54
w: ||||
"_dim." G2{!fermata!A!fermata!G} !fermata!F3 E | D2 !>![DFA]2) z2 |] %56
w: ||
V:3
 [D,A,]4 [D,A,]2 | [D,A,]4 [D,A,]2 | [D,A,]4 [D,A,]2 | [D,A,]4 [D,A,]2 | ^G,4 G,2 | %5
 [D,A,]2 F,2 [F,A,]2 | [_B,C]4 [G,C]2 | D,,2 A,2 A,2 |"^con molt'anima" D,,2 [B,D]2 [B,DG]2 | %9
 A,,2 [A,CG]2 [A,C]2 | A,,,2 [A,C]2 [A,C]2 | D,,2 [D,G,B,D]2 [F,A,]2 | %12
"^affrett." z2 [A,B,^D]2 [A,B,D]2 | z2 [A,B,^D]2 [G,B,E]2 | B,,2 [G,A,C]2 [G,B,C]2 | %15
 D,,2 !arpeggio![D,G,B,D]2 [D,F,B,D]2 | D,,2 [B,D]2 [B,DG]2 | A,,2 [A,CG]2 [A,C]2 | %18
 A,,,2 [A,C]2 [A,C]2 | D,,2 !arpeggio![D,G,B,D]2 [D,F,A,]2 | z2 [A,B,^D]2 [A,B,D]2 | %21
 z2 [G,B,E]2 [G,B,E]2 |"^rallen." z2 [G,A,C]2 [G,B,C]2 | z2 !>![G,A,C]2 [F,A,D]2 | %24
 A,,,2 [E,A,C]2 [E,A,CE]2 | E,,2 [E,A,C]2 [E,A,CE]2 | C,,2 [E,A,C]2 [F,A,]2 | %27
 B,,,2 [E,A,B,]2 [E,^G,B,]2 | z2 [E,^G,B,D]2 [E,G,B,D]2 | E,,2 [=F,A,B,]2 [E,^G,B,]2 | %30
{/D} ([B,D]2 C2 D2) | A,,,2 [F,A,] z [E,A,] z | z2 [E,A,C]2 [E,A,C]2 | z2 [E,A,C]2 [E,A,E]2 | %34
"^rall. e stentate" F,,2 [F,^A,E]2 [F,A,E]2 | B,,, z !>!^A,2 B, z | F,6 |"^rall." E,6 | D,6 | %39
 [C,E,A,]2 A,2 z2 | z6 | A,,,2 [A,CG]2 [A,C]2 | A,,,2 [G,A,C]2 [G,A,C]2 | D,,2 [G,B,D]2 [F,A,D]2 | %44
"^affrett:" z2 [A,B,^D]2 [A,B,D]2 | z2 !>![A,B,^D]2 [G,B,E]2 | A,,,2 [G,A,C]2 [G,A,C]2 | %47
 D,,2 [G,B,D]2 [F,A,D]2 | [D,,D,]2 [G,B,D]2 [G,B,D]2 | F,,2 [F,^A,C]2 [F,A,C]2 | %50
 F,,2 [F,^A,CE]2 [F,A,CE]2 |"^rall." B,,,2 !>![G,^A,CE]2 [F,B,D]2 | %52
"^rall. con anima" _B,,,2 [_B,D]2 [B,D]2 | A,,,2 ([A,,A,]2 A,2 | _B,2 A,2 !fermata![G,A,C]2) | %55
 [E,A,]2 !>!D,2 z2 |] %56
V:4
 x6 | G4 G2 | x6 | F4 F2 | ^E4 E2 | F4 x2 | x6 | x6 | x6 | x6 | x6 | x6 | x6 | x6 | x6 | x6 | x6 | %17
 x6 | x6 | x6 | x6 | x6 | x6 | x6 | x6 | x6 | x6 | x6 | x6 | x6 | x6 | x6 | x6 | x6 | x6 | x6 | %36
 x6 | x6 | x6 | x6 | x6 | x6 | x6 | x6 | x6 | x6 | x6 | x6 | x6 | x6 | x6 | x6 | G6 | A2 x4 | x6 | %55
 x6 |] %56
V:5
 x6 | x6 | x6 | x6 | B,,4 _B,,2 | A,,4 A,,2 | A,,,4 A,,2 | x6 | x6 | x6 | x6 | x6 | B,,2 z2 z2 | %13
 E,,2 z2 z2 | x6 | x6 | x6 | x6 | x6 | x6 | B,,,2 z2 z2 | E,,2 z2 z2 | A,,2 z2 z2 | A,,2 z2 D,,2 | %24
 x6 | x6 | x6 | x6 | B,,,2 z4 | x6 | F,,2 [E,^A,] z E, z | x6 | A,,,2 z2 z2 | [A,,,A,,]2 z2 z2 | %34
 x6 | x6 | D,,2 z2 z2 | E,,2 [E,A,C]2 [E,A,C]2 | E,,2 [E,^G,B,]2 [E,G,B,]2 | A,,2 A,,2 x2 | x6 | %41
 x6 | x6 | x6 | B,,2 z2 z2 | E,,2 z2 z2 | x6 | x6 | x6 | x6 | x6 | x6 | x6 | x4 A,,,2 | %54
 A,,,4 A,,2 | [D,,C,]2 D,,2 x2 |] %56

